_inc/images/systems/logos/auto-huntingandfishing.svg

<svg viewBox="0 0 200 40" xmlns="http://www.w3.org/2000/svg">
    <path d="M58.129 23.087c0 1.202.004 2.408-.004 3.612a.638.638 0 0 1-.082.258c-.702 1.378-1.408 2.757-2.111 4.138-.47.927-.278 1.613.6 2.163.338.212.679.415 1.007.636.097.067.206.193.209.295.02.607.01 1.216.01 1.918a3658.236 3658.236 0 0 1-4.83-3.017c.927-1.823 1.839-3.608 2.789-5.474-.086-.056-.185-.103-.262-.172-.686-.603-1.354-1.229-2.057-1.813-.765-.632-1.872-.546-2.564.156a1.92 1.92 0 0 0-.113 2.568c.04.047.089.083.172.159l.302-.964.076-.01c.473 1.133.95 2.266 1.425 3.4a.478.478 0 0 1-.063.045c-.07-.043-.15-.079-.209-.132-.656-.577-1.319-1.149-1.965-1.74-1.093-.993-1.199-2.63-.254-3.713.966-1.111 2.603-1.229 3.743-.258.695.592 1.369 1.208 2.084 1.848.679-1.329 1.345-2.628 2.011-3.929.029.013.056.02.086.026Zm8.409 7.912c.496-1.186.967-2.316 1.441-3.446a.6.6 0 0 1 .072-.006c.103.311.203.619.309.944 1.053-.915.682-2.681-.64-3.158-.686-.248-1.344-.152-1.901.328-.795.68-1.567 1.385-2.379 2.108l2.713 5.321c-1.574.983-3.131 1.957-4.761 2.978 0-.527.037-.984-.01-1.435-.049-.483.103-.798.554-.997.252-.113.477-.284.709-.437.738-.477.951-1.213.556-1.995-.672-1.335-1.365-2.664-2.031-4.002a1.736 1.736 0 0 1-.175-.716c-.017-1.109-.007-2.219-.007-3.33l.079-.029 2.025 3.956c.096-.073.182-.13.255-.199.666-.587 1.315-1.196 1.995-1.763 1.418-1.179 3.531-.645 4.171 1.07.384 1.031.209 2.008-.583 2.79-.706.696-1.482 1.326-2.227 1.981-.016.014-.047.01-.165.037Zm-5.957 5.655h-2.078c0-.454.004-.898 0-1.341-.006-1.498-.019-2.992-.023-4.49 0-.888.01-1.773.03-2.66a1.19 1.19 0 0 1 .126-.527c.145-.278.212-.56.199-.874-.017-.465-.004-.925-.004-1.422h1.418c.01.086.034.186.037.285.003.384.013.769 0 1.153-.011.298.046.57.192.838.079.143.126.325.126.488.006 2.765.006 5.536.004 8.302-.004.076-.018.152-.027.248Zm3.545-1.501.629-.4c.514.453 1.014.901 1.517 1.348.15.132.302.258.445.398.201.201.424.268.719.228.814-.109 1.434.55 1.285 1.335-.11.57-.64.981-1.206.928-.587-.053-1.09-.527-1.034-1.1.05-.53-.185-.831-.55-1.137-.599-.5-1.169-1.033-1.805-1.6Zm3.949 2.7a.47.47 0 0 0-.457-.487.494.494 0 0 0-.507.491.508.508 0 0 0 .49.473.48.48 0 0 0 .474-.477Zm-13.633-3.031.695.447c-.145.087-.261.133-.348.209-.576.507-1.146 1.023-1.726 1.527-.205.18-.308.378-.281.66.016.178.006.374-.043.546a1.131 1.131 0 0 1-1.316.763 1.138 1.138 0 0 1-.894-1.233c.056-.59.533-1.084 1.116-1.007.527.069.846-.16 1.183-.474.52-.487 1.064-.951 1.614-1.438Zm-2.296 3.029a.48.48 0 0 0-.477-.475.46.46 0 0 0-.481.461.472.472 0 0 0 .487.497.491.491 0 0 0 .471-.483Zm8.129-13.21h-1.423c-.087-1.196-.004-2.342.496-3.429.04-.082.133-.143.202-.212.07.069.169.126.206.212.288.686.503 1.394.519 2.147.008.417 0 .838 0 1.282Zm-1.732 13.305v-.655h2.028v.655h-2.028Z" style="fill:#ccc"/>
    <path d="m31.148 19.2 1.14-6.63h-4.29l-1.14 6.63h-5.7l3.3-18.75h5.7l-1.17 6.63h4.29l1.17-6.63h5.7l-3.3 18.75h-5.7Z" style="white-space:pre;fill:#fff"/>
    <path d="m142.635 12 .75-4.32h4.44l.84-4.65h4.08l-.84 4.65h4.47l-.75 4.32h-4.47l-.84 4.68h-4.08l.84-4.68h-4.44Z" style="white-space:pre;fill:#ccc"/>
    <path d="m132.366 13.68.15-.81h-1.44l.81-4.59h6.87l-1.77 10.02c-2.44.9-4.89 1.35-7.35 1.35s-4.235-.49-5.325-1.47c-1.09-.98-1.635-2.49-1.635-4.53 0-.86.14-2.13.42-3.81.6-3.48 1.66-5.99 3.18-7.53 1.52-1.54 4.04-2.31 7.56-2.31.74 0 1.685.08 2.835.24 1.15.16 1.995.34 2.535.54l-1.65 4.59c-1.5-.28-2.875-.42-4.125-.42s-2.145.1-2.685.3c-.54.2-.86.6-.96 1.2l-1.47 8.49h1.89c.68 0 1.185-.075 1.515-.225.33-.15.545-.495.645-1.035Zm-19.38 5.52-3.06-6.66c-.08-.14-.12-.335-.12-.585 0-.25.02-.535.06-.855h-.24l-1.41 8.1h-5.7l3.3-18.75h5.37l3.06 6.66c.06.14.09.335.09.585 0 .25-.02.535-.06.855h.24l1.44-8.1h5.7l-3.3 18.75h-5.37Zm-19.71 0 3.3-18.75h5.7l-3.3 18.75h-5.7Zm.271-13.95h-4.14l-2.43 13.95h-5.7l2.43-13.95h-4.11l.87-4.8h13.95l-.87 4.8ZM69.337 19.2l-3.06-6.66c-.08-.14-.12-.335-.12-.585 0-.25.02-.535.06-.855h-.24l-1.41 8.1h-5.7l3.3-18.75h5.37l3.06 6.66c.06.14.09.335.09.585 0 .25-.02.535-.06.855h.24l1.44-8.1h5.7l-3.3 18.75h-5.37ZM49.238.45l-2.49 14.07h2.04c.7 0 1.2-.095 1.5-.285.3-.19.51-.625.63-1.305L53.138.45h5.7l-1.86 10.53c-.3 1.7-.645 3.07-1.035 4.11-.39 1.04-.935 1.92-1.635 2.64-.7.72-1.565 1.22-2.595 1.5-1.03.28-2.335.42-3.915.42-2.42 0-4.115-.365-5.085-1.095-.97-.73-1.455-1.985-1.455-3.765 0-.98.14-2.25.42-3.81L43.538.45h5.7Zm35.827 31.79h-4.86l-1.2 6.96h-5.7l3.3-18.75h11.7l-1.59 4.8h-5.28l-.42 2.52h4.86Zm2.1 6.96 3.3-18.75h5.7l-3.3 18.75Zm8.699-.33 1.68-4.95c1.68.46 3.22.69 4.62.69s2.53-.06 3.39-.18l.24-1.5-2.49-.24c-1.9-.18-3.245-.61-4.035-1.29s-1.185-1.64-1.185-2.88c0-.54.06-1.14.18-1.8.46-2.56 1.295-4.32 2.505-5.28s3.085-1.44 5.625-1.44 4.78.25 6.72.75l-1.56 4.8c-1.74-.3-3.14-.45-4.2-.45s-1.96.05-2.7.15l-.24 1.47 2.01.21c2.04.22 3.49.705 4.35 1.455.86.75 1.29 1.755 1.29 3.015 0 1.28-.28 2.6-.84 3.96-.28.7-.585 1.285-.915 1.755-.33.47-.75.87-1.26 1.2-.51.33-.975.58-1.395.75-.42.17-.95.295-1.59.375-.94.14-2.09.21-3.45.21-2.48 0-4.73-.26-6.75-.78Zm27.78.33 1.14-6.63h-4.29l-1.14 6.63h-5.7l3.3-18.75h5.7l-1.17 6.63h4.29l1.17-6.63h5.7l-3.3 18.75Zm9.27 0 3.3-18.75h5.7l-3.3 18.75Zm19.709 0-3.06-6.66c-.08-.14-.12-.335-.12-.585 0-.25.02-.535.06-.855h-.24l-1.41 8.1h-5.7l3.3-18.75h5.37l3.06 6.66c.06.14.09.335.09.585 0 .25-.02.535-.06.855h.24l1.44-8.1h5.7l-3.3 18.75Zm19.38-5.52.15-.81h-1.44l.81-4.59h6.87l-1.77 10.02c-2.44.9-4.89 1.35-7.35 1.35s-4.235-.49-5.325-1.47c-1.09-.98-1.635-2.49-1.635-4.53 0-.86.14-2.13.42-3.81.6-3.48 1.66-5.99 3.18-7.53 1.52-1.54 4.04-2.31 7.56-2.31.74 0 1.685.08 2.835.24 1.15.16 1.995.34 2.535.54l-1.65 4.59c-1.5-.28-2.875-.42-4.125-.42s-2.145.1-2.685.3c-.54.2-.86.6-.96 1.2l-1.47 8.49h1.89c.68 0 1.185-.075 1.515-.225.33-.15.545-.495.645-1.035Z" style="white-space:pre;fill:#fff"/>
</svg>

<?xml version="1.0" encoding="utf-8"?>
<svg version="1.1" id="Warstwa_1" x="0px" y="0px" viewBox="0 0 200 40" xmlns="http://www.w3.org/2000/svg">
  <path d="M 58.129 23.087 C 58.129 24.289 58.133 25.495 58.125 26.699 C 58.125 26.784 58.083 26.874 58.043 26.957 C 57.341 28.335 56.635 29.714 55.932 31.095 C 55.462 32.022 55.654 32.708 56.532 33.258 C 56.87 33.47 57.211 33.673 57.539 33.894 C 57.636 33.961 57.745 34.087 57.748 34.189 C 57.768 34.796 57.758 35.405 57.758 36.107 C 56.111 35.08 54.531 34.093 52.928 33.09 C 53.855 31.267 54.767 29.482 55.717 27.616 C 55.631 27.56 55.532 27.513 55.455 27.444 C 54.769 26.841 54.101 26.215 53.398 25.631 C 52.633 24.999 51.526 25.085 50.834 25.787 C 50.144 26.49 50.095 27.6 50.721 28.355 C 50.761 28.402 50.81 28.438 50.893 28.514 C 51.003 28.166 51.098 27.858 51.195 27.55 C 51.222 27.547 51.244 27.543 51.271 27.54 C 51.744 28.673 52.221 29.806 52.696 30.94 C 52.676 30.956 52.656 30.972 52.633 30.985 C 52.563 30.942 52.483 30.906 52.424 30.853 C 51.768 30.276 51.105 29.704 50.459 29.113 C 49.366 28.12 49.26 26.483 50.205 25.4 C 51.171 24.289 52.808 24.171 53.948 25.142 C 54.643 25.734 55.317 26.35 56.032 26.99 C 56.711 25.661 57.377 24.362 58.043 23.061 C 58.072 23.074 58.099 23.081 58.129 23.087 Z" style="fill: rgb(204, 204, 204);"/>
  <path d="M 66.538 30.999 C 67.034 29.813 67.505 28.683 67.979 27.553 C 68.002 27.55 68.029 27.547 68.051 27.547 C 68.154 27.858 68.254 28.166 68.36 28.491 C 69.413 27.576 69.042 25.81 67.72 25.333 C 67.034 25.085 66.376 25.181 65.819 25.661 C 65.024 26.341 64.252 27.046 63.44 27.769 C 64.341 29.535 65.239 31.297 66.153 33.09 C 64.579 34.073 63.022 35.047 61.392 36.068 C 61.392 35.541 61.429 35.084 61.382 34.633 C 61.333 34.15 61.485 33.835 61.936 33.636 C 62.188 33.523 62.413 33.352 62.645 33.199 C 63.383 32.722 63.596 31.986 63.201 31.204 C 62.529 29.869 61.836 28.54 61.17 27.202 C 61.065 26.987 60.998 26.728 60.995 26.486 C 60.978 25.377 60.988 24.267 60.988 23.156 C 61.014 23.146 61.041 23.137 61.067 23.127 C 61.737 24.435 62.406 25.744 63.092 27.083 C 63.188 27.01 63.274 26.953 63.347 26.884 C 64.013 26.297 64.662 25.688 65.342 25.121 C 66.76 23.942 68.873 24.476 69.513 26.191 C 69.897 27.222 69.722 28.199 68.93 28.981 C 68.224 29.677 67.448 30.307 66.703 30.962 C 66.687 30.976 66.656 30.972 66.538 30.999 Z" style="fill: rgb(204, 204, 204);"/>
  <path d="M 60.581 36.654 C 59.895 36.654 59.226 36.654 58.503 36.654 C 58.503 36.2 58.507 35.756 58.503 35.313 C 58.497 33.815 58.484 32.321 58.48 30.823 C 58.48 29.935 58.49 29.05 58.51 28.163 C 58.513 27.984 58.553 27.791 58.636 27.636 C 58.781 27.358 58.848 27.076 58.835 26.762 C 58.818 26.297 58.831 25.837 58.831 25.34 C 59.305 25.34 59.759 25.34 60.249 25.34 C 60.259 25.426 60.283 25.526 60.286 25.625 C 60.289 26.009 60.299 26.394 60.286 26.778 C 60.275 27.076 60.332 27.348 60.478 27.616 C 60.557 27.759 60.604 27.941 60.604 28.104 C 60.61 30.869 60.61 33.64 60.608 36.406 C 60.604 36.482 60.59 36.558 60.581 36.654 Z" style="fill: rgb(204, 204, 204);"/>
  <path d="M 64.126 35.153 C 64.361 35.004 64.547 34.885 64.755 34.753 C 65.269 35.206 65.769 35.654 66.272 36.101 C 66.422 36.233 66.574 36.359 66.717 36.499 C 66.918 36.7 67.141 36.767 67.436 36.727 C 68.25 36.618 68.87 37.277 68.721 38.062 C 68.611 38.632 68.081 39.043 67.515 38.99 C 66.928 38.937 66.425 38.463 66.481 37.89 C 66.531 37.36 66.296 37.059 65.931 36.753 C 65.332 36.253 64.762 35.72 64.126 35.153 Z M 68.075 37.853 C 68.078 37.585 67.876 37.37 67.618 37.366 C 67.34 37.36 67.104 37.589 67.111 37.857 C 67.117 38.105 67.349 38.33 67.601 38.33 C 67.856 38.33 68.071 38.119 68.075 37.853 Z" style="fill: rgb(204, 204, 204);"/>
  <path d="M 54.442 34.822 C 54.643 34.952 54.832 35.074 55.137 35.269 C 54.992 35.356 54.876 35.402 54.789 35.478 C 54.213 35.985 53.643 36.501 53.063 37.005 C 52.858 37.185 52.755 37.383 52.782 37.665 C 52.798 37.843 52.788 38.039 52.739 38.211 C 52.573 38.765 51.98 39.099 51.423 38.974 C 50.847 38.844 50.473 38.328 50.529 37.741 C 50.585 37.151 51.062 36.657 51.645 36.734 C 52.172 36.803 52.491 36.574 52.828 36.26 C 53.348 35.773 53.892 35.309 54.442 34.822 Z M 52.146 37.851 C 52.146 37.592 51.933 37.38 51.669 37.376 C 51.397 37.374 51.195 37.565 51.188 37.837 C 51.178 38.119 51.4 38.344 51.675 38.334 C 51.93 38.328 52.149 38.105 52.146 37.851 Z" style="fill: rgb(204, 204, 204);"/>
  <path d="M 60.275 24.641 C 59.782 24.641 59.329 24.641 58.852 24.641 C 58.765 23.445 58.848 22.299 59.348 21.212 C 59.388 21.13 59.481 21.069 59.55 21 C 59.62 21.069 59.719 21.126 59.756 21.212 C 60.044 21.898 60.259 22.606 60.275 23.359 C 60.283 23.776 60.275 24.197 60.275 24.641 Z" style="fill: rgb(204, 204, 204);"/>
  <path d="M 58.543 37.946 C 58.543 37.705 58.543 37.512 58.543 37.291 C 59.222 37.291 59.888 37.291 60.571 37.291 C 60.571 37.512 60.571 37.715 60.571 37.946 C 59.898 37.946 59.236 37.946 58.543 37.946 Z" style="fill: rgb(204, 204, 204);"/>
  <path d="M 31.148 19.2 L 32.288 12.57 L 27.998 12.57 L 26.858 19.2 L 21.158 19.2 L 24.458 0.45 L 30.158 0.45 L 28.988 7.08 L 33.278 7.08 L 34.448 0.45 L 40.148 0.45 L 36.848 19.2 L 31.148 19.2 Z" style="white-space: pre; fill: rgb(255, 255, 255);"/>
  <path d="M 142.635 12 L 143.385 7.68 L 147.825 7.68 L 148.665 3.03 L 152.745 3.03 L 151.905 7.68 L 156.375 7.68 L 155.625 12 L 151.155 12 L 150.315 16.68 L 146.235 16.68 L 147.075 12 L 142.635 12 Z" style="white-space: pre; fill: rgb(204, 204, 204);"/>
  <path d="M 132.366 13.68 L 132.516 12.87 L 131.076 12.87 L 131.886 8.28 L 138.756 8.28 L 136.986 18.3 C 134.546 19.2 132.096 19.65 129.636 19.65 C 127.176 19.65 125.401 19.16 124.311 18.18 C 123.221 17.2 122.676 15.69 122.676 13.65 C 122.676 12.79 122.816 11.52 123.096 9.84 C 123.696 6.36 124.756 3.85 126.276 2.31 C 127.796 0.77 130.316 0 133.836 0 C 134.576 0 135.521 0.08 136.671 0.24 C 137.821 0.4 138.666 0.58 139.206 0.78 L 137.556 5.37 C 136.056 5.09 134.681 4.95 133.431 4.95 C 132.181 4.95 131.286 5.05 130.746 5.25 C 130.206 5.45 129.886 5.85 129.786 6.45 L 128.316 14.94 L 130.206 14.94 C 130.886 14.94 131.391 14.865 131.721 14.715 C 132.051 14.565 132.266 14.22 132.366 13.68 Z" style="white-space: pre; fill: rgb(255, 255, 255);"/>
  <path d="M 112.986 19.2 L 109.926 12.54 C 109.846 12.4 109.806 12.205 109.806 11.955 C 109.806 11.705 109.826 11.42 109.866 11.1 L 109.626 11.1 L 108.216 19.2 L 102.516 19.2 L 105.816 0.45 L 111.186 0.45 L 114.246 7.11 C 114.306 7.25 114.336 7.445 114.336 7.695 C 114.336 7.945 114.316 8.23 114.276 8.55 L 114.516 8.55 L 115.956 0.45 L 121.656 0.45 L 118.356 19.2 L 112.986 19.2 Z" style="white-space: pre; fill: rgb(255, 255, 255);"/>
  <path d="M 93.276 19.2 L 96.576 0.45 L 102.276 0.45 L 98.976 19.2 L 93.276 19.2 Z" style="white-space: pre; fill: rgb(255, 255, 255);"/>
  <path d="M 93.547 5.25 L 89.407 5.25 L 86.977 19.2 L 81.277 19.2 L 83.707 5.25 L 79.597 5.25 L 80.467 0.45 L 94.417 0.45 L 93.547 5.25 Z" style="white-space: pre; fill: rgb(255, 255, 255);"/>
  <path d="M 69.337 19.2 L 66.277 12.54 C 66.197 12.4 66.157 12.205 66.157 11.955 C 66.157 11.705 66.177 11.42 66.217 11.1 L 65.977 11.1 L 64.567 19.2 L 58.867 19.2 L 62.167 0.45 L 67.537 0.45 L 70.597 7.11 C 70.657 7.25 70.687 7.445 70.687 7.695 C 70.687 7.945 70.667 8.23 70.627 8.55 L 70.867 8.55 L 72.307 0.45 L 78.007 0.45 L 74.707 19.2 L 69.337 19.2 Z" style="white-space: pre; fill: rgb(255, 255, 255);"/>
  <path d="M 49.238 0.45 L 46.748 14.52 L 48.788 14.52 C 49.488 14.52 49.988 14.425 50.288 14.235 C 50.588 14.045 50.798 13.61 50.918 12.93 L 53.138 0.45 L 58.838 0.45 L 56.978 10.98 C 56.678 12.68 56.333 14.05 55.943 15.09 C 55.553 16.13 55.008 17.01 54.308 17.73 C 53.608 18.45 52.743 18.95 51.713 19.23 C 50.683 19.51 49.378 19.65 47.798 19.65 C 45.378 19.65 43.683 19.285 42.713 18.555 C 41.743 17.825 41.258 16.57 41.258 14.79 C 41.258 13.81 41.398 12.54 41.678 10.98 L 43.538 0.45 L 49.238 0.45 Z" style="white-space: pre; fill: rgb(255, 255, 255);"/>
  <path d="M 85.065 32.24 L 80.205 32.24 L 79.005 39.2 L 73.305 39.2 L 76.605 20.45 L 88.305 20.45 L 86.715 25.25 L 81.435 25.25 L 81.015 27.77 L 85.875 27.77 Z M 87.165 39.2 L 90.465 20.45 L 96.165 20.45 L 92.865 39.2 Z M 95.864 38.87 L 97.544 33.92 C 99.224 34.38 100.764 34.61 102.164 34.61 C 103.564 34.61 104.694 34.55 105.554 34.43 L 105.794 32.93 L 103.304 32.69 C 101.404 32.51 100.059 32.08 99.269 31.4 C 98.479 30.72 98.084 29.76 98.084 28.52 C 98.084 27.98 98.144 27.38 98.264 26.72 C 98.724 24.16 99.559 22.4 100.769 21.44 C 101.979 20.48 103.854 20 106.394 20 C 108.934 20 111.174 20.25 113.114 20.75 L 111.554 25.55 C 109.814 25.25 108.414 25.1 107.354 25.1 C 106.294 25.1 105.394 25.15 104.654 25.25 L 104.414 26.72 L 106.424 26.93 C 108.464 27.15 109.914 27.635 110.774 28.385 C 111.634 29.135 112.064 30.14 112.064 31.4 C 112.064 32.68 111.784 34 111.224 35.36 C 110.944 36.06 110.639 36.645 110.309 37.115 C 109.979 37.585 109.559 37.985 109.049 38.315 C 108.539 38.645 108.074 38.895 107.654 39.065 C 107.234 39.235 106.704 39.36 106.064 39.44 C 105.124 39.58 103.974 39.65 102.614 39.65 C 100.134 39.65 97.884 39.39 95.864 38.87 Z M 123.644 39.2 L 124.784 32.57 L 120.494 32.57 L 119.354 39.2 L 113.654 39.2 L 116.954 20.45 L 122.654 20.45 L 121.484 27.08 L 125.774 27.08 L 126.944 20.45 L 132.644 20.45 L 129.344 39.2 Z M 132.914 39.2 L 136.214 20.45 L 141.914 20.45 L 138.614 39.2 Z M 152.623 39.2 L 149.563 32.54 C 149.483 32.4 149.443 32.205 149.443 31.955 C 149.443 31.705 149.463 31.42 149.503 31.1 L 149.263 31.1 L 147.853 39.2 L 142.153 39.2 L 145.453 20.45 L 150.823 20.45 L 153.883 27.11 C 153.943 27.25 153.973 27.445 153.973 27.695 C 153.973 27.945 153.953 28.23 153.913 28.55 L 154.153 28.55 L 155.593 20.45 L 161.293 20.45 L 157.993 39.2 Z M 172.003 33.68 L 172.153 32.87 L 170.713 32.87 L 171.523 28.28 L 178.393 28.28 L 176.623 38.3 C 174.183 39.2 171.733 39.65 169.273 39.65 C 166.813 39.65 165.038 39.16 163.948 38.18 C 162.858 37.2 162.313 35.69 162.313 33.65 C 162.313 32.79 162.453 31.52 162.733 29.84 C 163.333 26.36 164.393 23.85 165.913 22.31 C 167.433 20.77 169.953 20 173.473 20 C 174.213 20 175.158 20.08 176.308 20.24 C 177.458 20.4 178.303 20.58 178.843 20.78 L 177.193 25.37 C 175.693 25.09 174.318 24.95 173.068 24.95 C 171.818 24.95 170.923 25.05 170.383 25.25 C 169.843 25.45 169.523 25.85 169.423 26.45 L 167.953 34.94 L 169.843 34.94 C 170.523 34.94 171.028 34.865 171.358 34.715 C 171.688 34.565 171.903 34.22 172.003 33.68 Z" style="white-space: pre; fill: rgb(255, 255, 255);"/>
</svg>
